docs/images/icons/delivery.svg

<svg width="69" height="44" viewBox="0 0 69 44" fill="none" xmlns="http://www.w3.org/2000/svg">
<path d="M68.8281 20.1403C67.2226 14.3239 63.0781 9.08935 56.1561 4.13235C56.0233 4.03469 55.8592 3.98391 55.6951 3.98391H45.0041C44.5666 3.98391 44.2151 4.33937 44.2151 4.77296V30.496H43.7619V0.792965C43.7619 0.355465 43.4065 0.00390625 42.9729 0.00390625L0.796873 0C0.359373 0 0.0078125 0.355469 0.0078125 0.789059V5.67966C0.0078125 5.67966 0.0078125 6.82419 0.0078125 7.25778V10.6914L0.00778919 12.2695L0.0078125 31.2305C0.0078125 31.2461 0 31.2617 0 31.2774V36.5782C0 37.0157 0.355471 37.3672 0.789061 37.3672H8.44926C8.84379 40.9883 11.9181 43.8125 15.6407 43.8125C19.3634 43.8125 22.4376 40.9844 22.8321 37.3672H47.9341C48.3286 40.9883 51.4029 43.8125 55.1255 43.8125C58.8481 43.8125 61.9224 40.9844 62.3169 37.3672H68.0708C68.5083 37.3672 68.8598 37.0118 68.8598 36.5782V20.3402C68.8598 20.2699 68.852 20.1996 68.8325 20.1292L68.8281 20.1403ZM45.7971 5.57035H55.4416C61.8908 10.2344 65.7656 15.1055 67.2736 20.4613V23.5355H62.9767C62.5392 23.5355 62.1876 23.891 62.1876 24.3246V28.9066C62.1876 29.3441 62.5431 29.6957 62.9767 29.6957H67.2736V30.4964H59.0119C57.8869 29.7738 56.551 29.3519 55.1213 29.3519C53.6877 29.3519 52.3557 29.7777 51.2307 30.4964H45.7971V5.56644V5.57035ZM67.2771 25.1173V28.1173H63.7693V25.1173H67.2771ZM47.9291 35.8013H22.8271C22.6747 34.4029 22.12 33.1255 21.2841 32.0825H49.4681C48.6321 33.1255 48.0814 34.4028 47.9251 35.8013H47.9291ZM24.2921 1.58635V16.9183L22.1241 15.3949C21.8506 15.2035 21.4873 15.2035 21.2139 15.3949L19.0459 16.9183V1.58635H24.2959H24.2921ZM1.58516 10.6996V7.26604C1.58516 7.26604 1.58516 6.12151 1.58516 5.68792V1.59023H17.4642V18.4452C17.4642 18.7421 17.6282 19.0116 17.8899 19.1483C18.1517 19.2851 18.4681 19.2616 18.7103 19.0937L21.6712 17.0156L24.6321 19.0937C24.7688 19.1874 24.925 19.2382 25.0852 19.2382C25.2102 19.2382 25.3352 19.2069 25.4485 19.1483C25.7102 19.0116 25.8742 18.7421 25.8742 18.4452V1.59023H42.1752V30.5042H19.5272C18.4022 29.7816 17.0663 29.3597 15.6366 29.3597C14.203 29.3597 12.871 29.7855 11.746 30.5042H1.59003V18.8322V17.2541V12.2893L1.58516 10.6996ZM1.57346 32.0826H9.98366C9.14772 33.1256 8.59696 34.4029 8.44066 35.8014H1.57346V32.0826ZM15.6325 42.2466C12.5153 42.2466 9.97626 39.7075 9.97626 36.5904C9.97626 33.4732 12.5154 30.9342 15.6325 30.9342C18.7497 30.9342 21.2887 33.4733 21.2887 36.5904C21.2887 39.7076 18.7496 42.2466 15.6325 42.2466ZM55.1165 42.2466C51.9993 42.2466 49.4603 39.7075 49.4603 36.5904C49.4603 33.4732 51.9994 30.9342 55.1165 30.9342C58.2337 30.9342 60.7727 33.4694 60.7727 36.5904C60.7727 39.7076 58.2336 42.2466 55.1165 42.2466ZM67.2685 35.8013H62.3076C62.1552 34.4029 61.6005 33.1255 60.7646 32.0825H67.2685V35.8013ZM62.124 20.2822C62.5497 20.2822 62.8974 19.9463 62.913 19.5244C63.038 16.415 59.1083 10.9189 55.1239 8.63343C55.0028 8.56312 54.87 8.52797 54.7294 8.52797H49.9482C49.5107 8.52797 49.1591 8.88343 49.1591 9.31702V19.489C49.1591 19.9265 49.5146 20.2781 49.9482 20.2781H62.1242L62.124 20.2822ZM50.741 10.1102H54.5183C57.7956 12.075 60.7683 16.2235 61.2644 18.7H50.7414L50.741 10.1102ZM55.1238 32.5752C52.909 32.5752 51.1082 34.376 51.1082 36.5908C51.1082 38.8056 52.909 40.6064 55.1238 40.6064C57.3386 40.6064 59.1394 38.8056 59.1394 36.5908C59.1394 34.376 57.3386 32.5752 55.1238 32.5752ZM55.1238 39.0205C53.784 39.0205 52.6902 37.9307 52.6902 36.5869C52.6902 35.2471 53.78 34.1533 55.1238 34.1533C56.4636 34.1533 57.5574 35.2431 57.5574 36.5869C57.5574 37.9267 56.4676 39.0205 55.1238 39.0205ZM15.6398 32.5752C13.425 32.5752 11.6242 34.376 11.6242 36.5908C11.6242 38.8056 13.425 40.6064 15.6398 40.6064C17.8546 40.6064 19.6554 38.8056 19.6554 36.5908C19.6554 34.376 17.8546 32.5752 15.6398 32.5752ZM15.6398 39.0205C14.3 39.0205 13.2062 37.9307 13.2062 36.5869C13.2062 35.2471 14.296 34.1533 15.6398 34.1533C16.9796 34.1533 18.0734 35.2431 18.0734 36.5869C18.0734 37.9267 16.9836 39.0205 15.6398 39.0205Z" fill="white"/>
</svg>

<svg width="69" height="44" fill="none" xmlns="http://www.w3.org/2000/svg"><path d="M68.828 20.14c-1.605-5.816-5.75-11.05-12.672-16.008a.782.782 0 0 0-.46-.148H45.003a.79.79 0 0 0-.789.789v25.723h-.453V.793a.79.79 0 0 0-.79-.79L.798 0a.79.79 0 0 0-.79.79v30.44c0 .016-.007.032-.007.047v5.301a.79.79 0 0 0 .79.79h7.66c.394 3.62 3.468 6.444 7.19 6.444 3.723 0 6.798-2.828 7.192-6.445h25.102c.395 3.621 3.469 6.446 7.192 6.446 3.722 0 6.796-2.829 7.19-6.446h5.755a.79.79 0 0 0 .789-.789V20.34c0-.07-.008-.14-.028-.21l-.004.01ZM45.798 5.57h9.644c6.449 4.664 10.324 9.535 11.832 14.891v3.075h-4.297a.79.79 0 0 0-.79.789v4.582a.79.79 0 0 0 .79.789h4.297v.8h-8.262a7.18 7.18 0 0 0-7.781 0h-5.434V5.566v.004Zm21.48 19.547v3h-3.509v-3h3.508Zm-19.35 10.684H22.827a7.183 7.183 0 0 0-1.543-3.718h28.184a7.214 7.214 0 0 0-1.543 3.718h.004ZM24.292 1.586v15.332l-2.168-1.523a.793.793 0 0 0-.91 0l-2.168 1.523V1.586h5.25-.004ZM1.585 10.7V1.59h15.88v16.855a.791.791 0 0 0 1.245.649l2.961-2.078 2.961 2.078a.8.8 0 0 0 .453.144.793.793 0 0 0 .79-.793V1.59h16.3v28.914H19.527a7.18 7.18 0 0 0-7.781 0H1.59V12.29l-.005-1.59Zm-.012 21.383h8.41A7.215 7.215 0 0 0 8.442 35.8H1.573v-3.718Zm14.06 10.164a5.665 5.665 0 0 1-5.657-5.657 5.665 5.665 0 0 1 5.656-5.656 5.665 5.665 0 0 1 5.657 5.656 5.665 5.665 0 0 1-5.657 5.657Zm39.484 0a5.665 5.665 0 0 1-5.657-5.657 5.665 5.665 0 0 1 5.657-5.656 5.662 5.662 0 0 1 5.656 5.656 5.665 5.665 0 0 1-5.657 5.657ZM67.269 35.8h-4.961a7.183 7.183 0 0 0-1.543-3.718h6.504V35.8Zm-5.145-15.519a.788.788 0 0 0 .789-.758c.125-3.109-3.805-8.605-7.79-10.89a.776.776 0 0 0-.394-.106h-4.78a.79.79 0 0 0-.79.789v10.172c0 .438.356.79.79.79h12.175v.003ZM50.741 10.11h3.777c3.278 1.965 6.25 6.114 6.746 8.59H50.741v-8.59Zm4.383 22.465a4.02 4.02 0 0 0-4.016 4.016 4.02 4.02 0 0 0 4.016 4.015 4.02 4.02 0 0 0 4.015-4.015 4.02 4.02 0 0 0-4.015-4.016Zm0 6.445a2.436 2.436 0 0 1-2.434-2.433c0-1.34 1.09-2.434 2.434-2.434 1.34 0 2.433 1.09 2.433 2.434 0 1.34-1.09 2.433-2.433 2.433ZM15.64 32.575a4.02 4.02 0 0 0-4.016 4.016 4.02 4.02 0 0 0 4.016 4.015 4.02 4.02 0 0 0 4.015-4.015 4.02 4.02 0 0 0-4.015-4.016Zm0 6.445a2.436 2.436 0 0 1-2.434-2.433c0-1.34 1.09-2.434 2.434-2.434 1.34 0 2.433 1.09 2.433 2.434 0 1.34-1.09 2.433-2.433 2.433Z" fill="#fff"/></svg>
